src/assets/icons/arrow_down.svg

<svg width="14" height="14" viewBox="0 0 14 14" fill="none" xmlns="http://www.w3.org/2000/svg">
<path fill-rule="evenodd" clip-rule="evenodd" d="M0.292893 0.292893C0.683417 -0.0976311 1.31658 -0.0976311 1.70711 0.292893L13.7071 12.2929C14.0976 12.6834 14.0976 13.3166 13.7071 13.7071C13.3166 14.0976 12.6834 14.0976 12.2929 13.7071L0.292893 1.70711C-0.0976311 1.31658 -0.0976311 0.683417 0.292893 0.292893Z" fill="black"/>
<path fill-rule="evenodd" clip-rule="evenodd" d="M13 2C13.5523 2 14 2.44772 14 3V13C14 13.5523 13.5523 14 13 14H3C2.44772 14 2 13.5523 2 13C2 12.4477 2.44772 12 3 12H12V3C12 2.44772 12.4477 2 13 2Z" fill="black"/>
</svg>

<svg width="14" height="14" fill="none" xmlns="http://www.w3.org/2000/svg">
  <path fillRule="evenodd" clipRule="evenodd"
    d="M.293.293a1 1 0 011.414 0l12 12a1 1 0 01-1.414 1.414l-12-12a1 1 0 010-1.414z" fill="#000" />
  <path fillRule="evenodd" clipRule="evenodd" d="M13 2a1 1 0 011 1v10a1 1 0 01-1 1H3a1 1 0 110-2h9V3a1 1 0 011-1z"
    fill="#000" />
</svg>
